X:1
T:Sumner's -- Hornpipe
R:hornpipe
B:Cole's 1000 Fiddle Tunes
M:2/4
L:1/16
K:D
vFE|DF"4"AF DFA,F|EG"4"AG EGA,G|FAdF GBec|Adfd cAGE|
DFAF DFA,F|EGAG EGA,G|FAdA Bgec|d2d2d2:|
|:vcd|"4"ecAc EAce|fdAd FAdf|g2(fg) efdf|edcB A2(cd)|
ecAc EAce|fdAd FAdf|gbag fedc|d2d2d2:|
